X: 642
T: Molly Malone
C:Traditional
B: traditional songs
B: songs
B: tunes
M:3/4
L:1/8
Q: 1/4=120
K:G
V:1 
D2\
|"G"G G3 G2|"Em"G B3 G2|"Am"A2 A3 A|"D7"A c3 A2|
"G"B2 A2 G2|d2 c2 B2|"A7"B2 A3 G|"D7"A4 DD|"G"G2 G3 G|
"G"G B3 G2|"Am"A2 A3 A|"D7"A c3 AA|"G"B d3 "C"c2|"G"B d3 "C"c2|
"G"B3 G "D7"A2|"G"G4 "D7"D2|"G"G3 G G2|G B3 G2|"Am"A3 A A2|
"Am"A c3 AA|"G"B d3 "C"c2|"G"B d3 "C"c2|"G"B3 G "D7"A2|"G"G4|]
W: In Dublin's fair city, where the girls are so pretty
W: I first set my eyes on sweet Molly Malone
W: As she wheeled her wheelbarrow through streets broad and narrow
W: Crying cockles and mussels alive a-live O!
W: 
W: A-live a-live O! A-live a-live O!
W: Crying cockles and mussels alive a-live O!
W: 
W: She was a fishmonger and sure it was no wonder
W: For so were her father and mother before
W: And they both wheeled their barrows through streets broad and narrow
W: Crying cockles and mussels alive a-live O!
W: 
W: A-live a-live O! A-live a-live O!
W: Crying cockles and mussels alive a-live O!
W: 
W: She died of a fever and no one could save her
W: And that was the end of sweet Molly Malone
W: Now her ghost wheels her barrow through streets broad and narrow
W: Crying cockles and mussels alive a-live O!
W: 
W: A-live a-live O! A-live a-live O!
W: Crying cockles and mussels alive a-live O!
W: A-live a-live O! A-live a-live O!
W: Crying cockles and mussels alive a-live O!
W: 
W: 
% abcbook-tune_id 63e4c84a015c4aa66611e915
% abcbook-tune_composer_id 
% abcbook-link-0 https://www.youtube.com/watch?v=YCjXkV1aaC8
% abcbook-boost 0
% abcbook-difficulty 0
% abcbook-tags © free
% abcbook-tablature 
% abcbook-transpose 
% abcbook-tuning 
% abcbook-lastupdated 1676945750266
% abcbook-soundfonts 
% abcbook-repeats 1


